!!!OTL: FLUECHTIGER ALS WIND UND WELLE
!!!ARE: Europa, Mitteleuropa, Deutschland
!!!SCT: F0307
!!!YEM: Copyright 1995, estate of Helmut Schaffrath.
**kern
*ICvox
*Ivox
*M4/4
*k[b-e-]
*B-:
=1
{4bb-
8dd
8cc
4b-
4f
=2
4dd
8ff
8ee-
8ee-
8dd
4dd}
=3
{4.cc
8bn
8cc
8dd
8ee-
8cc
=4
4bb-
8dd
8cc
4b-
4r}
=5
{4bb-
8dd
8cc
4b-
4f
=6
4dd
8ff
8ee-
8ee-
8dd
4dd}
=7
{4.cc
8bn
8cc
8dd
8ee-
8cc
=8
4bb-
8dd
8cc
4b-
4r}
=9
{4cc
8a
8b-
4cc
8a
8b-
=10
8cc
8ee-
8dd
8ff
4ff
4ee-}
=11
{4.dd
8ee-
4.ff
8dd
=12
8gg
8ff
8ee-
8dd
4dd
8cc
8r}
=13
{4bb-
8dd
8cc
4b-
4f
=14
4dd
8ff
8ee-
8ee-
8dd
4dd}
=15
{4.cc
8bn
8cc
8dd
8ee-
8cc
=16
4bb-
8dd
8cc
4b-
4r}
==
!!!AGN: Jugend - Lied, Belehrung, Moral, Lebenslauf
!!!ONB: ESAC (Essen Associative Code) Database: FINK
!!!AMT: simple quadruple
!!!AIN: vox
!!!EED: Helmut Schaffrath
!!!EEV: 1.0
*-
